icon-themes/breeze_svg/startmath/res/co21901.svg

<svg viewBox="0 0 24 24" xmlns="http://www.w3.org/2000/svg"><path d="m16 9v4h-8.0625l2.28125-2.28125-.71875-.71875-2.78125 2.78125-.71875.71875.71875.71875 2.78125 2.78125.71875-.71875-2.28125-2.28125h9.0625v-1-4z" fill="#4d4d4d"/></svg>

<svg xmlns="http://www.w3.org/2000/svg" viewBox="0 0 24 24">
 <path 
     style="fill:#4d4d4d" 
     d="M 16 9 L 16 13 L 7.9375 13 L 10.21875 10.71875 L 9.5 10 L 6.71875 12.78125 L 6 13.5 L 6.71875 14.21875 L 9.5 17 L 10.21875 16.28125 L 7.9375 14 L 17 14 L 17 13 L 17 9 L 16 9 z "
     />
</svg>
